brandFactory_export/1.Light/Marcador_1Light.svg

<?xml version="1.0" encoding="UTF-8"?>
<svg width="24px" height="24px" viewBox="0 0 24 24" version="1.1" xmlns="http://www.w3.org/2000/svg" xmlns:xlink="http://www.w3.org/1999/xlink">
    <title>1.Light/Marcador_1Light</title>
    <g id="Symbols" stroke="none" stroke-width="1" fill="none" fill-rule="evenodd">
        <g id="1.Light/Marcador_1Light" fill="#5CB615" fill-rule="nonzero">
            <path d="M18.7546218,22.0773109 C18.7546218,22.2857143 18.6403361,22.4638655 18.4487395,22.5579832 C18.2605042,22.6521008 18.0453782,22.6285714 17.9310924,22.5478992 L13.507563,18.1848739 C13.205042,17.8890756 12.8084034,17.7378151 12.405042,17.7378151 C12.0084034,17.7378151 11.605042,17.8857143 11.2991597,18.1848739 L6.90252101,22.507563 C6.73445378,22.6319328 6.52268908,22.6521008 6.33445378,22.5613445 C6.14285714,22.4672269 6.03193277,22.2890756 6.03193277,22.0806723 L6.03193277,1.54285714 C6.03193277,1.24705882 6.27394958,1.00840336 6.57310924,1.00840336 L18.2168067,1.00840336 C18.5159664,1.00840336 18.7579832,1.24705882 18.7579832,1.54285714 L18.7579832,22.0773109 L18.7546218,22.0773109 Z M18.2134454,-1.77635684e-15 L6.5697479,-1.77635684e-15 C5.7092437,-1.77635684e-15 5.01008403,0.692436975 5.01008403,1.5394958 L5.01008403,22.0773109 C5.01008403,22.6689076 5.34285714,23.2 5.88067227,23.4621849 C6.41848739,23.7243697 7.04705882,23.6638655 7.57142857,23.2605042 L12.0151261,18.9008403 C12.2336134,18.6890756 12.5798319,18.6890756 12.7882353,18.8941176 L17.2655462,23.3008403 C17.5445378,23.512605 17.8773109,23.6201681 18.2134454,23.6201681 C18.4487395,23.6201681 18.6840336,23.5663866 18.9092437,23.4588235 C19.4470588,23.1966387 19.7798319,22.6655462 19.7798319,22.0739496 L19.7798319,1.53613445 C19.7731092,0.692436975 19.0739496,-1.77635684e-15 18.2134454,-1.77635684e-15 Z" id="Marcador_1Light"></path>
        </g>
    </g>
</svg>

<svg width="24" height="24" viewBox="0 0 24 24" xmlns="http://www.w3.org/2000/svg"><path d="M18.755 22.077a.527.527 0 01-.306.481c-.188.094-.404.07-.518-.01l-4.423-4.363a1.57 1.57 0 00-1.103-.447c-.397 0-.8.148-1.106.447l-4.396 4.323a.543.543 0 01-.569.053.524.524 0 01-.302-.48V1.543c0-.296.242-.535.541-.535h11.644c.299 0 .541.24.541.535v20.534h-.003zM18.213 0H6.57c-.86 0-1.56.692-1.56 1.54v20.537c0 .592.333 1.123.87 1.385.538.262 1.167.202 1.691-.201l4.444-4.36a.556.556 0 01.773-.007l4.478 4.407a1.564 1.564 0 001.643.158c.538-.262.87-.793.87-1.385V1.536A1.562 1.562 0 0018.214 0z" fill="#5CB615" fill-rule="nonzero"/></svg>
